Icons/rename_me_google_play_games.svg

<svg viewBox="0 0 48 48" xmlns:xlink="http://www.w3.org/1999/xlink">
 <defs>
  <linearGradient id="0">
   <stop stop-opacity="0"/>
   <stop offset="1"/>
  </linearGradient>
  <linearGradient xlink:href="#0" id="1" gradientUnits="userSpaceOnUse" gradientTransform="translate(4e-7,-48)" y1="47" x2="0" y2="1"/>
  <clipPath id="2">
   <g transform="translate(0,-1004.3622)">
    <rect rx="4" y="1005.36" x="1" height="46" width="46" fill="#1890d0"/>
   </g>
  </clipPath>
  <clipPath id="3">
   <g transform="translate(0,-1004.3622)">
    <rect rx="4" y="1005.36" x="1" height="46" width="46" fill="#1890d0"/>
   </g>
  </clipPath>
 </defs>
 <g>
  <g transform="translate(0,-1004.3622)">
   <path d="m 5,1006.3622 c -2.216,0 -4,1.784 -4,4 l 0,37.25 c 0,2.216 1.784,4 4,4 l 38,0 c 2.216,0 4,-1.784 4,-4 l 0,-37.25 c 0,-2.216 -1.784,-4 -4,-4 l -38,0 z m -4,41.5 0,0.5 c 0,2.216 1.784,4 4,4 l 38,0 c 2.216,0 4,-1.784 4,-4 l 0,-0.5 c 0,2.216 -1.784,4 -4,4 l -38,0 c -2.216,0 -4,-1.784 -4,-4 z" opacity="0.02"/>
   <path d="m 1,1047.6122 0,0.25 c 0,2.216 1.784,4 4,4 l 38,0 c 2.216,0 4,-1.784 4,-4 l 0,-0.25 c 0,2.216 -1.784,4 -4,4 l -38,0 c -2.216,0 -4,-1.784 -4,-4 z" opacity="0.05"/>
   <rect width="46" height="46" x="1" y="1005.61" rx="4" opacity="0.1"/>
  </g>
 </g>
 <g>
  <g transform="translate(0,-1004.3622)">
   <rect rx="4" y="1005.36" x="1" height="46" width="46" fill="#97be57"/>
  </g>
 </g>
 <g>
  <rect transform="scale(1,-1)" width="46" height="46" x="1" y="-46.998" rx="4" opacity="0.1" fill="url(#1)"/>
 </g>
 <g>
  <g clip-path="url(#2)">
   <g opacity="0.1">
    <g>
     <path d="M 20.0625 14 C 19.640625 14 19.238281 14.074219 18.84375 14.15625 C 17.535156 14.34375 15.960938 14.789062 14.3125 15.84375 C 10.234375 18.457031 8.492188 30.578125 9.128906 31.710938 C 9.761719 32.84375 15.476562 30.570312 18.46875 26.214844 C 18.695312 25.886719 18.804688 25.355469 19 24.996094 L 29 24.996094 C 29.1875 25.335938 29.316406 25.898438 29.53125 26.214844 C 32.523438 30.570312 38.238281 32.84375 38.871094 31.710938 C 39.507812 30.578125 37.765625 18.457031 33.6875 15.84375 C 32.511719 15.136719 31.273438 14.613281 30.09375 14.3125 C 29.53125 14.144531 28.957031 14 28.34375 14 Z M 17 17 L 18 17 L 18 18.996094 L 20 18.996094 L 20 19.996094 L 18 19.996094 L 18 21.996094 L 17 21.996094 L 17 19.996094 L 15 19.996094 L 15 18.996094 L 17 18.996094 Z M 29.5 17 C 30.050781 17 30.5 17.445312 30.5 18 C 30.5 18.550781 30.050781 18.996094 29.5 18.996094 C 28.945312 18.996094 28.5 18.550781 28.5 18 C 28.5 17.445312 28.945312 17 29.5 17 Z M 32.5 18.496094 C 33.050781 18.496094 33.5 18.945312 33.5 19.496094 C 33.5 20.050781 33.050781 20.496094 32.5 20.496094 C 31.945312 20.496094 31.5 20.050781 31.5 19.496094 C 31.5 18.945312 31.945312 18.496094 32.5 18.496094 Z M 28 19.496094 C 28.550781 19.496094 29 19.945312 29 20.496094 C 29 21.050781 28.550781 21.496094 28 21.496094 C 27.445312 21.496094 27 21.050781 27 20.496094 C 27 19.945312 27.445312 19.496094 28 19.496094 Z M 31 20.996094 C 31.550781 20.996094 32 21.445312 32 21.996094 C 32 22.546875 31.550781 22.996094 31 22.996094 C 30.445312 22.996094 30 22.546875 30 21.996094 C 30 21.445312 30.445312 20.996094 31 20.996094 Z M 31 20.996094 "/>
    </g>
   </g>
  </g>
 </g>
 <g>
  <g clip-path="url(#3)">
   <g transform="translate(0,-1)">
    <g>
     <path d="M 20.0625 14 C 19.640625 14 19.238281 14.074219 18.84375 14.15625 C 17.535156 14.34375 15.960938 14.789062 14.3125 15.84375 C 10.234375 18.457031 8.492188 30.578125 9.128906 31.710938 C 9.761719 32.84375 15.476562 30.570312 18.46875 26.214844 C 18.695312 25.886719 18.804688 25.355469 19 24.996094 L 29 24.996094 C 29.1875 25.335938 29.316406 25.898438 29.53125 26.214844 C 32.523438 30.570312 38.238281 32.84375 38.871094 31.710938 C 39.507812 30.578125 37.765625 18.457031 33.6875 15.84375 C 32.511719 15.136719 31.273438 14.613281 30.09375 14.3125 C 29.53125 14.144531 28.957031 14 28.34375 14 Z M 17 17 L 18 17 L 18 18.996094 L 20 18.996094 L 20 19.996094 L 18 19.996094 L 18 21.996094 L 17 21.996094 L 17 19.996094 L 15 19.996094 L 15 18.996094 L 17 18.996094 Z M 29.5 17 C 30.050781 17 30.5 17.445312 30.5 18 C 30.5 18.550781 30.050781 18.996094 29.5 18.996094 C 28.945312 18.996094 28.5 18.550781 28.5 18 C 28.5 17.445312 28.945312 17 29.5 17 Z M 32.5 18.496094 C 33.050781 18.496094 33.5 18.945312 33.5 19.496094 C 33.5 20.050781 33.050781 20.496094 32.5 20.496094 C 31.945312 20.496094 31.5 20.050781 31.5 19.496094 C 31.5 18.945312 31.945312 18.496094 32.5 18.496094 Z M 28 19.496094 C 28.550781 19.496094 29 19.945312 29 20.496094 C 29 21.050781 28.550781 21.496094 28 21.496094 C 27.445312 21.496094 27 21.050781 27 20.496094 C 27 19.945312 27.445312 19.496094 28 19.496094 Z M 31 20.996094 C 31.550781 20.996094 32 21.445312 32 21.996094 C 32 22.546875 31.550781 22.996094 31 22.996094 C 30.445312 22.996094 30 22.546875 30 21.996094 C 30 21.445312 30.445312 20.996094 31 20.996094 Z M 31 20.996094 " fill="#f9f9f9"/>
    </g>
   </g>
  </g>
 </g>
 <g>
  <g transform="translate(0,-1004.3622)">
   <path d="m 1,1043.3622 0,4 c 0,2.216 1.784,4 4,4 l 38,0 c 2.216,0 4,-1.784 4,-4 l 0,-4 c 0,2.216 -1.784,4 -4,4 l -38,0 c -2.216,0 -4,-1.784 -4,-4 z" opacity="0.1"/>
  </g>
 </g>
</svg>

<svg viewBox="0 0 48 48"><defs><linearGradient id="linearGradient3764" x1="1" x2="47" gradientUnits="userSpaceOnUse" gradientTransform="translate(-48.000001,0.00221467)"><stop stop-color="#8db949" stop-opacity="1"/><stop offset="1" stop-color="#97be57" stop-opacity="1"/></linearGradient><clipPath id="clipPath-426047024"><g transform="translate(0,-1004.3622)"><rect rx="4" y="1005.36" x="1" height="46" width="46" fill="#1890d0"/></g></clipPath><clipPath id="clipPath-439227822"><g transform="translate(0,-1004.3622)"><rect rx="4" y="1005.36" x="1" height="46" width="46" fill="#1890d0"/></g></clipPath></defs><g><path d="m 1 43 l 0 0.25 c 0 2.216 1.784 4 4 4 l 38 0 c 2.216 0 4 -1.784 4 -4 l 0 -0.25 c 0 2.216 -1.784 4 -4 4 l -38 0 c -2.216 0 -4 -1.784 -4 -4 z m 0 0.5 l 0 0.5 c 0 2.216 1.784 4 4 4 l 38 0 c 2.216 0 4 -1.784 4 -4 l 0 -0.5 c 0 2.216 -1.784 4 -4 4 l -38 0 c -2.216 0 -4 -1.784 -4 -4 z" opacity="0.02"/><path d="m 1 43.25 l 0 0.25 c 0 2.216 1.784 4 4 4 l 38 0 c 2.216 0 4 -1.784 4 -4 l 0 -0.25 c 0 2.216 -1.784 4 -4 4 l -38 0 c -2.216 0 -4 -1.784 -4 -4 z" opacity="0.05"/><path d="m 1 43 l 0 0.25 c 0 2.216 1.784 4 4 4 l 38 0 c 2.216 0 4 -1.784 4 -4 l 0 -0.25 c 0 2.216 -1.784 4 -4 4 l -38 0 c -2.216 0 -4 -1.784 -4 -4 z" opacity="0.1"/></g><g><rect width="46" height="46" x="-47" y="1" rx="4" transform="matrix(0,-1,1,0,0,0)" fill="url(#linearGradient3764)" fill-opacity="1"/></g><g><g clip-path="url(#clipPath-426047024)"><g opacity="0.1"><!-- color: #97be57 --><g><path d="m 20.06 14 c -0.422 0 -0.824 0.074 -1.219 0.156 c -1.309 0.188 -2.883 0.633 -4.531 1.688 c -4.078 2.613 -5.82 14.734 -5.184 15.867 c 0.633 1.133 6.348 -1.141 9.34 -5.496 c 0.227 -0.328 0.336 -0.859 0.531 -1.219 l 10 0 c 0.188 0.34 0.316 0.902 0.531 1.219 c 2.992 4.355 8.707 6.629 9.34 5.496 c 0.637 -1.133 -1.105 -13.254 -5.184 -15.867 c -1.176 -0.707 -2.414 -1.23 -3.594 -1.531 c -0.563 -0.168 -1.137 -0.313 -1.75 -0.313 m -11.344 3 l 1 0 l 0 1.996 l 2 0 l 0 1 l -2 0 l 0 2 l -1 0 l 0 -2 l -2 0 l 0 -1 l 2 0 m 12.5 -1.996 c 0.551 0 1 0.445 1 1 c 0 0.551 -0.449 0.996 -1 0.996 c -0.555 0 -1 -0.445 -1 -0.996 c 0 -0.555 0.445 -1 1 -1 m 3 1.496 c 0.551 0 1 0.449 1 1 c 0 0.555 -0.449 1 -1 1 c -0.555 0 -1 -0.445 -1 -1 c 0 -0.551 0.445 -1 1 -1 m -4.5 1 c 0.551 0 1 0.449 1 1 c 0 0.555 -0.449 1 -1 1 c -0.555 0 -1 -0.445 -1 -1 c 0 -0.551 0.445 -1 1 -1 m 3 1.5 c 0.551 0 1 0.449 1 1 c 0 0.551 -0.449 1 -1 1 c -0.555 0 -1 -0.449 -1 -1 c 0 -0.551 0.445 -1 1 -1 m 0 0" fill="#000"/></g></g></g></g><g><g clip-path="url(#clipPath-439227822)"><g transform="translate(0,-1)"><!-- color: #97be57 --><g><path d="m 20.06 14 c -0.422 0 -0.824 0.074 -1.219 0.156 c -1.309 0.188 -2.883 0.633 -4.531 1.688 c -4.078 2.613 -5.82 14.734 -5.184 15.867 c 0.633 1.133 6.348 -1.141 9.34 -5.496 c 0.227 -0.328 0.336 -0.859 0.531 -1.219 l 10 0 c 0.188 0.34 0.316 0.902 0.531 1.219 c 2.992 4.355 8.707 6.629 9.34 5.496 c 0.637 -1.133 -1.105 -13.254 -5.184 -15.867 c -1.176 -0.707 -2.414 -1.23 -3.594 -1.531 c -0.563 -0.168 -1.137 -0.313 -1.75 -0.313 m -11.344 3 l 1 0 l 0 1.996 l 2 0 l 0 1 l -2 0 l 0 2 l -1 0 l 0 -2 l -2 0 l 0 -1 l 2 0 m 12.5 -1.996 c 0.551 0 1 0.445 1 1 c 0 0.551 -0.449 0.996 -1 0.996 c -0.555 0 -1 -0.445 -1 -0.996 c 0 -0.555 0.445 -1 1 -1 m 3 1.496 c 0.551 0 1 0.449 1 1 c 0 0.555 -0.449 1 -1 1 c -0.555 0 -1 -0.445 -1 -1 c 0 -0.551 0.445 -1 1 -1 m -4.5 1 c 0.551 0 1 0.449 1 1 c 0 0.555 -0.449 1 -1 1 c -0.555 0 -1 -0.445 -1 -1 c 0 -0.551 0.445 -1 1 -1 m 3 1.5 c 0.551 0 1 0.449 1 1 c 0 0.551 -0.449 1 -1 1 c -0.555 0 -1 -0.449 -1 -1 c 0 -0.551 0.445 -1 1 -1 m 0 0" fill="#f9f9f9"/></g></g></g></g><g><g transform="translate(0,-1004.3622)"><path d="m 1 1043.36 0 4 c 0 2.216 1.784 4 4 4 l 38 0 c 2.216 0 4 -1.784 4 -4 l 0 -4 c 0 2.216 -1.784 4 -4 4 l -38 0 c -2.216 0 -4 -1.784 -4 -4 z" opacity="0.1"/></g></g></svg>
